icon-svg/shutter-20.svg

<svg xmlns="http://www.w3.org/2000/svg" fill="#44739e" viewBox="0 0 24 24"><path d="M2.5 8.467h19v.475h-19Zm.23-4.474h18.54v4.14H2.73ZM2.5 1.99v1.692h19V1.99Zm3.722 1.347H3.07V2.26h3.152Zm-2.954-.876h2.753v.675H3.268z"/></svg>

<?xml version="1.0" encoding="UTF-8"?>
<svg width="24px" fill="#44739e" height="24px" viewBox="0 0 24 24" version="1.1" xmlns="http://www.w3.org/2000/svg" xmlns:xlink="http://www.w3.org/1999/xlink">
            <path d="m 2.5,8.467 h 19 V 8.942 H 2.5 Z M 2.73,3.993 H 21.270001 V 8.1329999 H 2.73 Z M 2.5,1.99 v 1.692 h 19 V 1.99 Z M 6.222,3.337 H 3.07 V 2.26 H 6.222 Z M 3.2679999,2.461 h 2.753 v 0.675 h -2.753 z"/>

</svg>
